images/Cart.svg

<svg xmlns="http://www.w3.org/2000/svg" width="40" height="40" fill="none" viewBox="0 0 40 40"><circle cx="20" cy="20" r="20" fill="#f2f2f2"/><path fill="#a2a2a2" d="M16.8 24.8c-.88 0-1.592.72-1.592 1.6S15.92 28 16.8 28s1.6-.72 1.6-1.6-.72-1.6-1.6-1.6M12 12v1.6h1.6l2.88 6.072-1.08 1.96c-.128.224-.2.488-.2.768 0 .88.72 1.6 1.6 1.6h9.6v-1.6h-9.264a.2.2 0 0 1-.2-.2l.024-.096.72-1.304h5.96c.6 0 1.128-.328 1.4-.824l2.864-5.192A.802.802 0 0 0 27.2 13.6H15.368l-.752-1.6zm12.8 12.8c-.88 0-1.592.72-1.592 1.6S23.92 28 24.8 28s1.6-.72 1.6-1.6-.72-1.6-1.6-1.6"/></svg>

<svg width="40" height="40" viewBox="0 0 40 40" fill="none" xmlns="http://www.w3.org/2000/svg">
<circle cx="20" cy="20" r="20" fill="#F2F2F2"/>
<path d="M16.8 24.8C15.92 24.8 15.208 25.52 15.208 26.4C15.208 27.28 15.92 28 16.8 28C17.68 28 18.4 27.28 18.4 26.4C18.4 25.52 17.68 24.8 16.8 24.8ZM12 12V13.6H13.6L16.48 19.672L15.4 21.632C15.272 21.856 15.2 22.12 15.2 22.4C15.2 23.28 15.92 24 16.8 24H26.4V22.4H17.136C17.024 22.4 16.936 22.312 16.936 22.2L16.96 22.104L17.68 20.8H23.64C24.24 20.8 24.768 20.472 25.04 19.976L27.904 14.784C27.968 14.672 28 14.536 28 14.4C28 13.96 27.64 13.6 27.2 13.6H15.368L14.616 12H12ZM24.8 24.8C23.92 24.8 23.208 25.52 23.208 26.4C23.208 27.28 23.92 28 24.8 28C25.68 28 26.4 27.28 26.4 26.4C26.4 25.52 25.68 24.8 24.8 24.8Z" fill="#A2A2A2"/>
</svg>
